X:1
T:Title
%%score { ( 1 3 ) | 2 }
L:1/8
Q:1/4=100
M:4/4
K:G
V:1 treble nm="Grand Piano"
V:3 treble 
V:2 treble 
V:1
 B>c B>c B2 G2 | [EG]>[EA] [EG]>[G,CE] [B,DG]4 | F>G F>G A2 A2 | G>A G>A B4 | d>e d>e d2 B2 | %5
w: William~J.~Kirkpatrick * * * * *|||||
 G>A G>A [^DB]4 | E>F G>E [B,DG]2 [B,D]2 | [DGB]>[EGc] [DFB]>[CFA] [B,DG]4 | d>e d2 B>c B>A | %9
w: ||||
 G>A B>c [FA]4 | d>e d2 B>c B2 | G>F G>[^CGB] [FA]2- [=CFA]2 | D>E D>E G2 G2 | [FA]>[FA] G>A B4 | %14
w: |||||
 [Gc]2 [Gd]2 [Gc] [DB]3 | [B,EG]2 [CFA]2 [B,DG]4 |] %16
w: ||
V:2
 [G,DG]>[G,EG] [G,DG]>[G,EG] [G,DG]2[K:bass] [G,B,D]2 | [C,C]>[C,C] [C,C]>C, G,,4 | %2
 [D,A,D]>[D,B,D] [D,A,D]>[D,B,D] [D,CD]2 [D,CD]2 | [G,B,D]>[G,CD] [G,B,D]>[G,CD] [G,DG]4 | %4
 [G,B,G]>[G,CG] [G,B,G]>[G,CG] [G,B,G]2[K:bass] [G,D]2 | [E,B,E]>[E,CE] [E,B,E]>[E,G,E] [B,,F,]4 | %6
 [C,E,C]>[C,E,C] [C,E,C]>[C,G,C] G,,2 G,,2 | D,>D, D,>D, G,,4 | %8
 [G,B,G]>[G,CG] [G,B,G]2 [G,DG]>[G,EG] [G,DG]>[G,CD] | [G,B,D]>[G,CD] [G,DG]>[G,EG] [D,D]4 | %10
 [G,B,G]>[G,CG] [G,B,G]2 [G,DG]>[G,EG] [G,DG]2 | [E,^C]>[E,CE] [E,CE]>A,, D,4 | %12
 [G,B,]>[G,C] [G,B,]>[G,C] [G,B,D]2 [G,B,D]2 | [D,C]>[D,C] [D,B,D]>[D,F,D] [G,D]4 | %14
 [E,G,]2 [C,C]2 [G,B,] G,3 | E,2 ^D,2 G,,4 |] %16
V:3
 x8 | x8 | x8 | x8 | x8 | x8 | x8 | x8 | x8 | x8 | x8 | z4 D2 z2 | x8 | x8 | x8 | x8 |] %16

